src/assets/icons/ultimate.svg

<svg width="32" height="32" viewBox="0 0 32 32" fill="none" xmlns="http://www.w3.org/2000/svg">
	<path
			d="M9.87187 17.4143L5.18882 17.0541C4.62093 17.0104 4.3658 16.3207 4.76854 15.918L8.9964 11.6901L13.5758 11.6901C17.347 7.91889 20.7142 7.51483 23.5426 8.45764C24.4854 11.2861 24.0813 14.6532 20.3101 18.4245C20.2428 21.1856 20.3101 23.0038 20.3101 23.0038L16.0823 27.2317C15.6795 27.6344 14.9898 27.3793 14.9461 26.8114L14.5859 22.1284"
			stroke="black" stroke-width="1.5" stroke-linecap="round"/>
	<circle cx="18.8281" cy="13.1714" r="1.33333" transform="rotate(45 18.8281 13.1714)" fill="black"/>
	<path d="M14.1143 17.8857L8.4574 23.5426" stroke="black" stroke-width="1.5" stroke-linecap="square"/>
</svg>

<svg xmlns="http://www.w3.org/2000/svg" width="32" height="32" fill="none"><path stroke="#000" stroke-linecap="round" stroke-width="1.5" d="m9.872 17.414-4.683-.36a.667.667 0 0 1-.42-1.136l4.227-4.228h4.58c3.771-3.771 7.138-4.175 9.967-3.232.942 2.828.538 6.195-3.233 9.966-.067 2.762 0 4.58 0 4.58l-4.228 4.228a.667.667 0 0 1-1.136-.42l-.36-4.684"/><circle cx="18.828" cy="13.171" r="1.333" fill="#000" transform="rotate(45 18.828 13.171)"/><path stroke="#000" stroke-linecap="square" stroke-width="1.5" d="m14.114 17.886-5.657 5.657"/></svg>
